X: 21171
M: 6/8
L: 1/8
K: D
V: 1 name="4"
c | e>dc c>BA | B3 ABc | d2c cBA | d2c cBA |\
edc cBA | B2A ABc | def e2d | cdB "^D.C."A2 |]
g2g g2g | f3 dcd | e2c ABc | d2f a2f |\
g2g g2g | f3 dcd | e2c ABc | d3- "^D.C."d2 |]


